icons/modern/spiral-shell.svg

<svg width="32" height="32" viewBox="0 0 32 32" fill="none" xmlns="http://www.w3.org/2000/svg">
<path d="M23.7437 12.2549L16.5737 19.0949L26.8637 29.8949C30.8237 26.1249 30.9737 19.8449 27.2037 15.8849L23.7437 12.2549Z" fill="url(#paint0_linear_28327_6169)"/>
<path d="M23.7437 12.2549L16.5737 19.0949L26.8637 29.8949C30.8237 26.1249 30.9737 19.8449 27.2037 15.8849L23.7437 12.2549Z" fill="url(#paint1_linear_28327_6169)"/>
<path d="M23.7437 12.2549L16.5737 19.0949L26.8637 29.8949C30.8237 26.1249 30.9737 19.8449 27.2037 15.8849L23.7437 12.2549Z" fill="url(#paint2_radial_28327_6169)"/>
<path d="M23.7437 12.2549L16.5737 19.0949L26.8637 29.8949C30.8237 26.1249 30.9737 19.8449 27.2037 15.8849L23.7437 12.2549Z" fill="url(#paint3_radial_28327_6169)"/>
<path d="M23.7437 12.2549L16.5737 19.0949L26.8637 29.8949C30.8237 26.1249 30.9737 19.8449 27.2037 15.8849L23.7437 12.2549Z" fill="url(#paint4_radial_28327_6169)"/>
<path d="M22.9333 14.1743L17.1433 19.6843L25.4433 28.3943C28.6433 25.3443 28.7633 20.2843 25.7133 17.0943L22.9333 14.1743Z" fill="url(#paint5_radial_28327_6169)"/>
<g filter="url(#filter0_i_28327_6169)">
<path d="M12.7434 9.19436L8.74336 13.0044C4.82336 16.7444 4.67335 22.9543 8.40335 26.8743C10.2633 28.8243 12.8334 29.9244 15.5234 29.9144L26.8634 29.8944L22.9634 25.8044C21.4134 24.1844 21.4834 21.6144 23.1034 20.0644C26.1134 17.2044 26.2234 12.4444 23.3634 9.43438C20.5134 6.44438 15.7534 6.33436 12.7434 9.19436Z" fill="url(#paint6_linear_28327_6169)"/>
<path d="M12.7434 9.19436L8.74336 13.0044C4.82336 16.7444 4.67335 22.9543 8.40335 26.8743C10.2633 28.8243 12.8334 29.9244 15.5234 29.9144L26.8634 29.8944L22.9634 25.8044C21.4134 24.1844 21.4834 21.6144 23.1034 20.0644C26.1134 17.2044 26.2234 12.4444 23.3634 9.43438C20.5134 6.44438 15.7534 6.33436 12.7434 9.19436Z" fill="url(#paint7_radial_28327_6169)"/>
<path d="M12.7434 9.19436L8.74336 13.0044C4.82336 16.7444 4.67335 22.9543 8.40335 26.8743C10.2633 28.8243 12.8334 29.9244 15.5234 29.9144L26.8634 29.8944L22.9634 25.8044C21.4134 24.1844 21.4834 21.6144 23.1034 20.0644C26.1134 17.2044 26.2234 12.4444 23.3634 9.43438C20.5134 6.44438 15.7534 6.33436 12.7434 9.19436Z" fill="url(#paint8_radial_28327_6169)"/>
</g>
<path d="M12.7434 9.19436L8.74336 13.0044C4.82336 16.7444 4.67335 22.9543 8.40335 26.8743C10.2633 28.8243 12.8334 29.9244 15.5234 29.9144L26.8634 29.8944L22.9634 25.8044C21.4134 24.1844 21.4834 21.6144 23.1034 20.0644C26.1134 17.2044 26.2234 12.4444 23.3634 9.43438C20.5134 6.44438 15.7534 6.33436 12.7434 9.19436Z" fill="url(#paint9_linear_28327_6169)"/>
<path d="M12.7434 9.19436L8.74336 13.0044C4.82336 16.7444 4.67335 22.9543 8.40335 26.8743C10.2633 28.8243 12.8334 29.9244 15.5234 29.9144L26.8634 29.8944L22.9634 25.8044C21.4134 24.1844 21.4834 21.6144 23.1034 20.0644C26.1134 17.2044 26.2234 12.4444 23.3634 9.43438C20.5134 6.44438 15.7534 6.33436 12.7434 9.19436Z" fill="url(#paint10_radial_28327_6169)"/>
<path d="M12.7434 9.19436L8.74336 13.0044C4.82336 16.7444 4.67335 22.9543 8.40335 26.8743C10.2633 28.8243 12.8334 29.9244 15.5234 29.9144L26.8634 29.8944L22.9634 25.8044C21.4134 24.1844 21.4834 21.6144 23.1034 20.0644C26.1134 17.2044 26.2234 12.4444 23.3634 9.43438C20.5134 6.44438 15.7534 6.33436 12.7434 9.19436Z" fill="url(#paint11_radial_28327_6169)"/>
<path d="M4.65337 8.12436C6.00094 8.12436 7.09337 7.03196 7.09337 5.68439C7.09337 4.33681 6.00094 3.24438 4.65337 3.24438C3.30579 3.24438 2.21338 4.33681 2.21338 5.68439C2.21338 7.03196 3.30579 8.12436 4.65337 8.12436Z" fill="url(#paint12_radial_28327_6169)"/>
<path d="M4.65337 8.12436C6.00094 8.12436 7.09337 7.03196 7.09337 5.68439C7.09337 4.33681 6.00094 3.24438 4.65337 3.24438C3.30579 3.24438 2.21338 4.33681 2.21338 5.68439C2.21338 7.03196 3.30579 8.12436 4.65337 8.12436Z" fill="url(#paint13_linear_28327_6169)"/>
<path d="M4.65337 8.12436C6.00094 8.12436 7.09337 7.03196 7.09337 5.68439C7.09337 4.33681 6.00094 3.24438 4.65337 3.24438C3.30579 3.24438 2.21338 4.33681 2.21338 5.68439C2.21338 7.03196 3.30579 8.12436 4.65337 8.12436Z" fill="url(#paint14_radial_28327_6169)"/>
<path d="M6.77328 3.6144L2.69328 7.49441C1.80328 8.34441 1.76327 9.7544 2.61327 10.6444L4.37632 12.4674L11.6763 5.50744L9.91328 3.68441C9.07328 2.80441 7.66328 2.7644 6.77328 3.6144Z" fill="url(#paint15_linear_28327_6169)"/>
<path d="M6.77328 3.6144L2.69328 7.49441C1.80328 8.34441 1.76327 9.7544 2.61327 10.6444L4.37632 12.4674L11.6763 5.50744L9.91328 3.68441C9.07328 2.80441 7.66328 2.7644 6.77328 3.6144Z" fill="url(#paint16_radial_28327_6169)"/>
<path d="M6.77328 3.6144L2.69328 7.49441C1.80328 8.34441 1.76327 9.7544 2.61327 10.6444L4.37632 12.4674L11.6763 5.50744L9.91328 3.68441C9.07328 2.80441 7.66328 2.7644 6.77328 3.6144Z" fill="url(#paint17_radial_28327_6169)"/>
<path d="M6.77328 3.6144L2.69328 7.49441C1.80328 8.34441 1.76327 9.7544 2.61327 10.6444L4.37632 12.4674L11.6763 5.50744L9.91328 3.68441C9.07328 2.80441 7.66328 2.7644 6.77328 3.6144Z" fill="url(#paint18_linear_28327_6169)"/>
<path d="M10.6133 5.32441L4.21329 11.4244C2.81329 12.7544 2.76328 14.9744 4.09328 16.3744L5.88329 18.2544L17.1406 7.17188L15.5533 5.45442C14.2233 4.04442 12.0033 3.98441 10.6133 5.32441Z" fill="url(#paint19_linear_28327_6169)"/>
<path d="M10.6133 5.32441L4.21329 11.4244C2.81329 12.7544 2.76328 14.9744 4.09328 16.3744L5.88329 18.2544L17.1406 7.17188L15.5533 5.45442C14.2233 4.04442 12.0033 3.98441 10.6133 5.32441Z" fill="url(#paint20_radial_28327_6169)"/>
<path d="M10.6133 5.32441L4.21329 11.4244C2.81329 12.7544 2.76328 14.9744 4.09328 16.3744L5.88329 18.2544L17.1406 7.17188L15.5533 5.45442C14.2233 4.04442 12.0033 3.98441 10.6133 5.32441Z" fill="url(#paint21_radial_28327_6169)"/>
<defs>
<filter id="filter0_i_28327_6169" x="5.70166" y="7.11865" width="21.1617" height="23.0458" filterUnits="userSpaceOnUse" color-interpolation-filters="sRGB">
<feFlood flood-opacity="0" result="BackgroundImageFix"/>
<feBlend mode="normal" in="SourceGraphic" in2="BackgroundImageFix" result="shape"/>
<feColorMatrix in="SourceAlpha" type="matrix" values="0 0 0 0 0 0 0 0 0 0 0 0 0 0 0 0 0 0 127 0" result="hardAlpha"/>
<feOffset dy="0.25"/>
<feGaussianBlur stdDeviation="0.125"/>
<feComposite in2="hardAlpha" operator="arithmetic" k2="-1" k3="1"/>
<feColorMatrix type="matrix" values="0 0 0 0 0.780392 0 0 0 0 0.760784 0 0 0 0 0.831373 0 0 0 1 0"/>
<feBlend mode="normal" in2="shape" result="effect1_innerShadow_28327_6169"/>
</filter>
<linearGradient id="paint0_linear_28327_6169" x1="27.1055" y1="19.043" x2="28.1055" y2="29.8949" gradientUnits="userSpaceOnUse">
<stop offset="0.00558659" stop-color="#C8C8CE"/>
<stop offset="1" stop-color="#BDB3CF"/>
</linearGradient>
<linearGradient id="paint1_linear_28327_6169" x1="26.0117" y1="14.8867" x2="29.2305" y2="17.168" gradientUnits="userSpaceOnUse">
<stop stop-color="#C8C8CE"/>
<stop offset="1" stop-color="#C8C8CE" stop-opacity="0"/>
</linearGradient>
<radialGradient id="paint2_radial_28327_6169" cx="0" cy="0" r="1" gradientUnits="userSpaceOnUse" gradientTransform="translate(25.4961 28.0742) rotate(25.9588) scale(1.32075 3.15887)">
<stop stop-color="#A29FAF"/>
<stop offset="0.911967" stop-color="#A29FAF" stop-opacity="0"/>
</radialGradient>
<radialGradient id="paint3_radial_28327_6169" cx="0" cy="0" r="1" gradientUnits="userSpaceOnUse" gradientTransform="translate(26.2187 29.2031) rotate(-44.1737) scale(1.14917 5.65467)">
<stop stop-color="#C3BED0"/>
<stop offset="0.253022" stop-color="#C3BED0" stop-opacity="0"/>
</radialGradient>
<radialGradient id="paint4_radial_28327_6169" cx="0" cy="0" r="1" gradientUnits="userSpaceOnUse" gradientTransform="translate(23.9063 22.0625) rotate(2.70063) scale(6.63237 10.2681)">
<stop offset="0.840467" stop-color="#CAC4D9" stop-opacity="0"/>
<stop offset="1" stop-color="#CAC4D9"/>
</radialGradient>
<radialGradient id="paint5_radial_28327_6169" cx="0" cy="0" r="1" gradientUnits="userSpaceOnUse" gradientTransform="translate(21.7187 22.5624) rotate(-1.36393) scale(5.25149 6.06778)">
<stop stop-color="#3E3763"/>
<stop offset="1" stop-color="#271F4B"/>
</radialGradient>
<linearGradient id="paint6_linear_28327_6169" x1="12.75" y1="18.0625" x2="29.5" y2="34.875" gradientUnits="userSpaceOnUse">
<stop stop-color="#C2C2C9"/>
<stop offset="1" stop-color="#B196D3"/>
</linearGradient>
<radialGradient id="paint7_radial_28327_6169" cx="0" cy="0" r="1" gradientUnits="userSpaceOnUse" gradientTransform="translate(20 32.125) rotate(-144.697) scale(17.5202 11.1848)">
<stop stop-color="#A382C8"/>
<stop offset="1" stop-color="#A382C8" stop-opacity="0"/>
</radialGradient>
<radialGradient id="paint8_radial_28327_6169" cx="0" cy="0" r="1" gradientUnits="userSpaceOnUse" gradientTransform="translate(22 31.5) rotate(-153.958) scale(12.243 5.20856)">
<stop stop-color="#9D7BC2"/>
<stop offset="1" stop-color="#9D7BC2" stop-opacity="0"/>
</radialGradient>
<linearGradient id="paint9_linear_28327_6169" x1="10.25" y1="13" x2="13.0625" y2="15.8125" gradientUnits="userSpaceOnUse">
<stop stop-color="#B6B1C2"/>
<stop offset="1" stop-color="#B6B1C2" stop-opacity="0"/>
</linearGradient>
<radialGradient id="paint10_radial_28327_6169" cx="0" cy="0" r="1" gradientUnits="userSpaceOnUse" gradientTransform="translate(23.75 13.625) rotate(156.448) scale(10.636 8.08629)">
<stop stop-color="#E3E1EB"/>
<stop offset="1" stop-color="#E3E1EB" stop-opacity="0"/>
</radialGradient>
<radialGradient id="paint11_radial_28327_6169" cx="0" cy="0" r="1" gradientUnits="userSpaceOnUse" gradientTransform="translate(3.5 21.375) rotate(6.69293) scale(12.8702 11.9476)">
<stop stop-color="#ACA7B8"/>
<stop offset="1" stop-color="#ACA7B8" stop-opacity="0"/>
</radialGradient>
<radialGradient id="paint12_radial_28327_6169" cx="0" cy="0" r="1" gradientUnits="userSpaceOnUse" gradientTransform="translate(5.6875 4.875) rotate(178.698) scale(2.75071 2.74701)">
<stop offset="0.00558659" stop-color="#E2E0EA"/>
<stop offset="1" stop-color="#ACAAB4"/>
</radialGradient>
<linearGradient id="paint13_linear_28327_6169" x1="5.23438" y1="5.89844" x2="4.53125" y2="5.10937" gradientUnits="userSpaceOnUse">
<stop stop-color="#B2B2B9"/>
<stop offset="1" stop-color="#B2B2B9" stop-opacity="0"/>
</linearGradient>
<radialGradient id="paint14_radial_28327_6169" cx="0" cy="0" r="1" gradientUnits="userSpaceOnUse" gradientTransform="translate(4.65337 5.68437) rotate(-132.614) scale(2.6497 3.54261)">
<stop offset="0.710281" stop-color="#A3A3A8" stop-opacity="0"/>
<stop offset="0.953739" stop-color="#95959A"/>
</radialGradient>
<linearGradient id="paint15_linear_28327_6169" x1="7.12187" y1="7.92032" x2="4.95215" y2="5.72086" gradientUnits="userSpaceOnUse">
<stop stop-color="#C7C7CE"/>
<stop offset="1" stop-color="#A6A5AF"/>
</linearGradient>
<radialGradient id="paint16_radial_28327_6169" cx="0" cy="0" r="1" gradientUnits="userSpaceOnUse" gradientTransform="translate(9.53125 4.5) rotate(138.434) scale(4.42737 1.75627)">
<stop stop-color="#E2E1E9"/>
<stop offset="1" stop-color="#E2E1E9" stop-opacity="0"/>
</radialGradient>
<radialGradient id="paint17_radial_28327_6169" cx="0" cy="0" r="1" gradientUnits="userSpaceOnUse" gradientTransform="translate(5.5625 12) rotate(-58.8514) scale(6.6456 6.74948)">
<stop stop-color="#B4A8C7"/>
<stop offset="1" stop-color="#B4A8C7" stop-opacity="0"/>
</radialGradient>
<linearGradient id="paint18_linear_28327_6169" x1="7.5" y1="9.15625" x2="6.5625" y2="8.1875" gradientUnits="userSpaceOnUse">
<stop stop-color="#B1ADBC"/>
<stop offset="1" stop-color="#B1ADBC" stop-opacity="0"/>
</linearGradient>
<linearGradient id="paint19_linear_28327_6169" x1="10.5454" y1="11.5796" x2="7.36013" y2="8.3943" gradientUnits="userSpaceOnUse">
<stop stop-color="#C7C7CE"/>
<stop offset="1" stop-color="#A6A5AF"/>
</linearGradient>
<radialGradient id="paint20_radial_28327_6169" cx="0" cy="0" r="1" gradientUnits="userSpaceOnUse" gradientTransform="translate(15.125 7.75) rotate(135.855) scale(5.92268 4.15247)">
<stop stop-color="#E2E1E9"/>
<stop offset="1" stop-color="#E2E1E9" stop-opacity="0"/>
</radialGradient>
<radialGradient id="paint21_radial_28327_6169" cx="0" cy="0" r="1" gradientUnits="userSpaceOnUse" gradientTransform="translate(7.625 16.5) rotate(-45) scale(10.3414 10.5041)">
<stop stop-color="#B4A8C7"/>
<stop offset="1" stop-color="#B4A8C7" stop-opacity="0"/>
</radialGradient>
</defs>
</svg>

<svg width="32" height="32" fill="none" xmlns="http://www.w3.org/2000/svg"><path d="m23.744 12.255-7.17 6.84 10.29 10.8c3.96-3.77 4.11-10.05.34-14.01l-3.46-3.63Z" fill="url(#a)"/><path d="m23.744 12.255-7.17 6.84 10.29 10.8c3.96-3.77 4.11-10.05.34-14.01l-3.46-3.63Z" fill="url(#b)"/><path d="m23.744 12.255-7.17 6.84 10.29 10.8c3.96-3.77 4.11-10.05.34-14.01l-3.46-3.63Z" fill="url(#c)"/><path d="m23.744 12.255-7.17 6.84 10.29 10.8c3.96-3.77 4.11-10.05.34-14.01l-3.46-3.63Z" fill="url(#d)"/><path d="m23.744 12.255-7.17 6.84 10.29 10.8c3.96-3.77 4.11-10.05.34-14.01l-3.46-3.63Z" fill="url(#e)"/><path d="m22.933 14.174-5.79 5.51 8.3 8.71c3.2-3.05 3.32-8.11.27-11.3l-2.78-2.92Z" fill="url(#f)"/><g filter="url(#g)"><path d="m12.743 9.194-4 3.81c-3.92 3.74-4.07 9.95-.34 13.87a9.786 9.786 0 0 0 7.12 3.04l11.34-.02-3.9-4.09c-1.55-1.62-1.48-4.19.14-5.74 3.01-2.86 3.12-7.62.26-10.63-2.85-2.99-7.61-3.1-10.62-.24Z" fill="url(#h)"/><path d="m12.743 9.194-4 3.81c-3.92 3.74-4.07 9.95-.34 13.87a9.786 9.786 0 0 0 7.12 3.04l11.34-.02-3.9-4.09c-1.55-1.62-1.48-4.19.14-5.74 3.01-2.86 3.12-7.62.26-10.63-2.85-2.99-7.61-3.1-10.62-.24Z" fill="url(#i)"/><path d="m12.743 9.194-4 3.81c-3.92 3.74-4.07 9.95-.34 13.87a9.786 9.786 0 0 0 7.12 3.04l11.34-.02-3.9-4.09c-1.55-1.62-1.48-4.19.14-5.74 3.01-2.86 3.12-7.62.26-10.63-2.85-2.99-7.61-3.1-10.62-.24Z" fill="url(#j)"/></g><path d="m12.743 9.194-4 3.81c-3.92 3.74-4.07 9.95-.34 13.87a9.786 9.786 0 0 0 7.12 3.04l11.34-.02-3.9-4.09c-1.55-1.62-1.48-4.19.14-5.74 3.01-2.86 3.12-7.62.26-10.63-2.85-2.99-7.61-3.1-10.62-.24Z" fill="url(#k)"/><path d="m12.743 9.194-4 3.81c-3.92 3.74-4.07 9.95-.34 13.87a9.786 9.786 0 0 0 7.12 3.04l11.34-.02-3.9-4.09c-1.55-1.62-1.48-4.19.14-5.74 3.01-2.86 3.12-7.62.26-10.63-2.85-2.99-7.61-3.1-10.62-.24Z" fill="url(#l)"/><path d="m12.743 9.194-4 3.81c-3.92 3.74-4.07 9.95-.34 13.87a9.786 9.786 0 0 0 7.12 3.04l11.34-.02-3.9-4.09c-1.55-1.62-1.48-4.19.14-5.74 3.01-2.86 3.12-7.62.26-10.63-2.85-2.99-7.61-3.1-10.62-.24Z" fill="url(#m)"/><path d="M4.653 8.124a2.44 2.44 0 1 0 0-4.88 2.44 2.44 0 0 0 0 4.88Z" fill="url(#n)"/><path d="M4.653 8.124a2.44 2.44 0 1 0 0-4.88 2.44 2.44 0 0 0 0 4.88Z" fill="url(#o)"/><path d="M4.653 8.124a2.44 2.44 0 1 0 0-4.88 2.44 2.44 0 0 0 0 4.88Z" fill="url(#p)"/><path d="m6.773 3.614-4.08 3.88c-.89.85-.93 2.26-.08 3.15l1.763 1.823 7.3-6.96-1.763-1.823c-.84-.88-2.25-.92-3.14-.07Z" fill="url(#q)"/><path d="m6.773 3.614-4.08 3.88c-.89.85-.93 2.26-.08 3.15l1.763 1.823 7.3-6.96-1.763-1.823c-.84-.88-2.25-.92-3.14-.07Z" fill="url(#r)"/><path d="m6.773 3.614-4.08 3.88c-.89.85-.93 2.26-.08 3.15l1.763 1.823 7.3-6.96-1.763-1.823c-.84-.88-2.25-.92-3.14-.07Z" fill="url(#s)"/><path d="m6.773 3.614-4.08 3.88c-.89.85-.93 2.26-.08 3.15l1.763 1.823 7.3-6.96-1.763-1.823c-.84-.88-2.25-.92-3.14-.07Z" fill="url(#t)"/><path d="m10.613 5.324-6.4 6.1a3.505 3.505 0 0 0-.12 4.95l1.79 1.88L17.141 7.172l-1.588-1.718a3.475 3.475 0 0 0-4.94-.13Z" fill="url(#u)"/><path d="m10.613 5.324-6.4 6.1a3.505 3.505 0 0 0-.12 4.95l1.79 1.88L17.141 7.172l-1.588-1.718a3.475 3.475 0 0 0-4.94-.13Z" fill="url(#v)"/><path d="m10.613 5.324-6.4 6.1a3.505 3.505 0 0 0-.12 4.95l1.79 1.88L17.141 7.172l-1.588-1.718a3.475 3.475 0 0 0-4.94-.13Z" fill="url(#w)"/><defs><radialGradient id="c" cx="0" cy="0" r="1" gradientUnits="userSpaceOnUse" gradientTransform="matrix(1.1875 .57812 -1.38272 2.84017 25.496 28.074)"><stop stop-color="#A29FAF"/><stop offset=".912" stop-color="#A29FAF" stop-opacity="0"/></radialGradient><radialGradient id="d" cx="0" cy="0" r="1" gradientUnits="userSpaceOnUse" gradientTransform="matrix(.82422 -.80078 3.94038 4.0557 26.219 29.203)"><stop stop-color="#C3BED0"/><stop offset=".253" stop-color="#C3BED0" stop-opacity="0"/></radialGradient><radialGradient id="e" cx="0" cy="0" r="1" gradientUnits="userSpaceOnUse" gradientTransform="matrix(6.625 .3125 -.4838 10.2567 23.906 22.063)"><stop offset=".84" stop-color="#CAC4D9" stop-opacity="0"/><stop offset="1" stop-color="#CAC4D9"/></radialGradient><radialGradient id="f" cx="0" cy="0" r="1" gradientUnits="userSpaceOnUse" gradientTransform="matrix(5.25 -.125 .14443 6.06606 21.719 22.562)"><stop stop-color="#3E3763"/><stop offset="1" stop-color="#271F4B"/></radialGradient><radialGradient id="i" cx="0" cy="0" r="1" gradientUnits="userSpaceOnUse" gradientTransform="matrix(-14.29836 -10.12493 6.4637 -9.128 20 32.125)"><stop stop-color="#A382C8"/><stop offset="1" stop-color="#A382C8" stop-opacity="0"/></radialGradient><radialGradient id="j" cx="0" cy="0" r="1" gradientUnits="userSpaceOnUse" gradientTransform="matrix(-11 -5.37504 2.28671 -4.67975 22 31.5)"><stop stop-color="#9D7BC2"/><stop offset="1" stop-color="#9D7BC2" stop-opacity="0"/></radialGradient><radialGradient id="l" cx="0" cy="0" r="1" gradientUnits="userSpaceOnUse" gradientTransform="rotate(156.448 10.455 9.288) scale(10.636 8.08629)"><stop stop-color="#E3E1EB"/><stop offset="1" stop-color="#E3E1EB" stop-opacity="0"/></radialGradient><radialGradient id="m" cx="0" cy="0" r="1" gradientUnits="userSpaceOnUse" gradientTransform="matrix(12.78249 1.5 -1.39247 11.86618 3.5 21.375)"><stop stop-color="#ACA7B8"/><stop offset="1" stop-color="#ACA7B8" stop-opacity="0"/></radialGradient><radialGradient id="n" cx="0" cy="0" r="1" gradientUnits="userSpaceOnUse" gradientTransform="matrix(-2.75 .0625 -.06242 -2.7463 5.688 4.875)"><stop offset=".006" stop-color="#E2E0EA"/><stop offset="1" stop-color="#ACAAB4"/></radialGradient><radialGradient id="p" cx="0" cy="0" r="1" gradientUnits="userSpaceOnUse" gradientTransform="matrix(-1.794 -1.95 2.60712 -2.39854 4.653 5.684)"><stop offset=".71" stop-color="#A3A3A8" stop-opacity="0"/><stop offset=".954" stop-color="#95959A"/></radialGradient><radialGradient id="r" cx="0" cy="0" r="1" gradientUnits="userSpaceOnUse" gradientTransform="rotate(138.434 3.912 4.059) scale(4.42737 1.75627)"><stop stop-color="#E2E1E9"/><stop offset="1" stop-color="#E2E1E9" stop-opacity="0"/></radialGradient><radialGradient id="s" cx="0" cy="0" r="1" gradientUnits="userSpaceOnUse" gradientTransform="matrix(3.4375 -5.6875 5.7764 3.49123 5.563 12)"><stop stop-color="#B4A8C7"/><stop offset="1" stop-color="#B4A8C7" stop-opacity="0"/></radialGradient><radialGradient id="v" cx="0" cy="0" r="1" gradientUnits="userSpaceOnUse" gradientTransform="matrix(-4.25 4.125 -2.8921 -2.97973 15.125 7.75)"><stop stop-color="#E2E1E9"/><stop offset="1" stop-color="#E2E1E9" stop-opacity="0"/></radialGradient><radialGradient id="w" cx="0" cy="0" r="1" gradientUnits="userSpaceOnUse" gradientTransform="matrix(7.31247 -7.31247 7.42752 7.42752 7.625 16.5)"><stop stop-color="#B4A8C7"/><stop offset="1" stop-color="#B4A8C7" stop-opacity="0"/></radialGradient><linearGradient id="a" x1="27.105" y1="19.043" x2="28.105" y2="29.895" gradientUnits="userSpaceOnUse"><stop offset=".006" stop-color="#C8C8CE"/><stop offset="1" stop-color="#BDB3CF"/></linearGradient><linearGradient id="b" x1="26.012" y1="14.887" x2="29.23" y2="17.168" gradientUnits="userSpaceOnUse"><stop stop-color="#C8C8CE"/><stop offset="1" stop-color="#C8C8CE" stop-opacity="0"/></linearGradient><linearGradient id="h" x1="12.75" y1="18.063" x2="29.5" y2="34.875" gradientUnits="userSpaceOnUse"><stop stop-color="#C2C2C9"/><stop offset="1" stop-color="#B196D3"/></linearGradient><linearGradient id="k" x1="10.25" y1="13" x2="13.063" y2="15.813" gradientUnits="userSpaceOnUse"><stop stop-color="#B6B1C2"/><stop offset="1" stop-color="#B6B1C2" stop-opacity="0"/></linearGradient><linearGradient id="o" x1="5.234" y1="5.898" x2="4.531" y2="5.109" gradientUnits="userSpaceOnUse"><stop stop-color="#B2B2B9"/><stop offset="1" stop-color="#B2B2B9" stop-opacity="0"/></linearGradient><linearGradient id="q" x1="7.122" y1="7.92" x2="4.952" y2="5.721" gradientUnits="userSpaceOnUse"><stop stop-color="#C7C7CE"/><stop offset="1" stop-color="#A6A5AF"/></linearGradient><linearGradient id="t" x1="7.5" y1="9.156" x2="6.563" y2="8.188" gradientUnits="userSpaceOnUse"><stop stop-color="#B1ADBC"/><stop offset="1" stop-color="#B1ADBC" stop-opacity="0"/></linearGradient><linearGradient id="u" x1="10.545" y1="11.58" x2="7.36" y2="8.394" gradientUnits="userSpaceOnUse"><stop stop-color="#C7C7CE"/><stop offset="1" stop-color="#A6A5AF"/></linearGradient><filter id="g" x="5.702" y="7.119" width="21.162" height="23.046" filterUnits="userSpaceOnUse" color-interpolation-filters="sRGB"><feFlood flood-opacity="0" result="BackgroundImageFix"/><feBlend in="SourceGraphic" in2="BackgroundImageFix" result="shape"/><feColorMatrix in="SourceAlpha" values="0 0 0 0 0 0 0 0 0 0 0 0 0 0 0 0 0 0 127 0" result="hardAlpha"/><feOffset dy=".25"/><feGaussianBlur stdDeviation=".125"/><feComposite in2="hardAlpha" operator="arithmetic" k2="-1" k3="1"/><feColorMatrix values="0 0 0 0 0.780392 0 0 0 0 0.760784 0 0 0 0 0.831373 0 0 0 1 0"/><feBlend in2="shape" result="effect1_innerShadow_28327_6169"/></filter></defs></svg>
